X:1
T:Title
%%score { 1 | 2 }
L:1/8
M:4/4
K:Ab
V:1 treble nm="Grand Piano"
V:2 bass 
V:1
 z4 z2[Q:1/4=100] [CE][CA] | [Ec]2 [Ec]>[Ec] [Ec][Ec][DB][Ec] | [CA]4 [CE]2 [CE][CA] | %3
 [Ec][Ec] [Ec]>[Ec] dcBA | B6 [CE][CA] | [Ec]2 [Ec]>[Ec] [Ec][Ec][EB][Ec] | [Fd]4 [DF]2 [Fd][Fd] | %7
 cccc BBBB |[M:3/4] [A,CA]6 |[M:1/4] [CA][C_GA] |[M:4/4] [Fd]2 [Fd]>[Fd] [Fd][Fd][Fd][Fd] | %11
 [Ec]4 [Ec]2 [Ec][Ec] | [EB][EB][EB][EB] [A=d][Ad][Ac][AB] | [Ge]6 [Ge][Ge] | cccc A2 Bc | %15
 e[Fd][Fd][Fd] [DF]2 [Fd][Fd] | cccc BBBB |[M:3/4] [CA]6 |] %18
V:2
 z4 z2 [A,,E,][A,,E,] | [A,,A,]2 [A,,A,]>[A,,A,] [A,,A,][A,,A,][A,,A,][A,,A,] | %2
 [A,,A,]4 [A,,A,]2 [A,,A,][A,,A,] | %3
 [A,,A,][A,,A,] [A,,A,]>[A,,A,][K:treble] [A,F][A,E][K:bass][A,D][A,C] | [E,G,E]6 [A,,E,][A,,E,] | %5
 [A,,A,]2 [A,,A,]>[A,,A,] [A,,A,][A,,A,][B,,G,][C,A,] | [D,A,]4 [D,A,]2 [D,A,][D,A,] | %7
 [E,A,E][E,A,E][E,A,E][E,A,E] [E,G,D][E,G,D][E,G,D][E,G,D] |[M:3/4] A,,6 |[M:1/4] A,,A,, | %10
[M:4/4] [D,A,]2 [D,A,]>[D,A,] [D,A,][D,A,][D,A,][D,A,] | [A,,A,]4 [A,,A,]2 [A,,A,][A,,A,] | %12
 [B,,G,][B,,G,][B,,G,][B,,G,] [B,,B,][B,,B,][B,,B,][B,,B,] | [E,B,]6 [E,D][E,D] | %14
 [A,EA][A,EA][A,EA][A,EA] [A,CE]2[K:bass] [G,B,E][_G,A,E] | %15
 [F,A,E][D,A,][D,A,][D,A,] [D,A,]2 [D,A,][D,A,] | %16
 [E,A,E][E,A,E][E,A,E][E,A,E] [E,G,D][E,G,D][E,G,D][E,G,D] |[M:3/4] [A,,E,A,]6 |] %18

